assets/svg/ic_track_on.svg

<?xml version="1.0" encoding="UTF-8"?>
<svg xmlns="http://www.w3.org/2000/svg" xmlns:xlink="http://www.w3.org/1999/xlink" width="64pt" height="64pt" viewBox="0 0 64 64" version="1.1">
<g id="surface1">
<path style=" stroke:none;fill-rule:nonzero;fill:rgb(78.039216%,88.627451%,98.823529%);fill-opacity:1;" d="M 36 19 C 36 28.386719 28.386719 36 19 36 C 9.613281 36 2 28.386719 2 19 C 2 9.613281 9.613281 2 19 2 C 28.386719 2 36 9.613281 36 19 Z M 36 19 "/>
<path style=" stroke:none;fill-rule:nonzero;fill:rgb(92.156863%,96.862745%,99.607843%);fill-opacity:1;" d="M 2 19 C 2 23.21875 3.542969 27.074219 6.082031 30.042969 C 8.449219 31.292969 11.144531 32 14 32 C 23.386719 32 31 24.386719 31 15 C 31 10.78125 29.457031 6.925781 26.917969 3.957031 C 24.550781 2.707031 21.855469 2 19 2 C 9.613281 2 2 9.613281 2 19 Z M 2 19 "/>
<path style=" stroke:none;fill-rule:nonzero;fill:rgb(96.078431%,72.54902%,32.54902%);fill-opacity:1;" d="M 29 11 L 9 11 C 7.894531 11 7 11.894531 7 13 L 7 25 C 7 26.105469 7.894531 27 9 27 L 29 27 C 30.105469 27 31 26.105469 31 25 L 31 13 C 31 11.894531 30.105469 11 29 11 Z M 29 11 "/>
<path style=" stroke:none;fill-rule:nonzero;fill:rgb(97.647059%,81.960784%,54.509804%);fill-opacity:1;" d="M 29 11 L 9 11 C 7.894531 11 7 11.894531 7 13 L 7 17 L 31 17 L 31 13 C 31 11.894531 30.105469 11 29 11 Z M 29 11 "/>
<path style=" stroke:none;fill-rule:nonzero;fill:rgb(29.803922%,65.490196%,49.411765%);fill-opacity:1;" d="M 47.792969 46.113281 L 62 41 L 62 38.75 C 62 36.375 60.949219 34.125 59.125 32.605469 L 57.800781 31.5 C 56.636719 30.53125 55.167969 30 53.644531 30 C 52.5625 30 51.5 30.269531 50.550781 30.792969 L 17 49 L 10.175781 42.175781 C 9.417969 41.417969 8.40625 41 7.34375 41 L 2 41 L 12 59 L 22.292969 55.300781 "/>
<path style=" stroke:none;fill-rule:nonzero;fill:rgb(32.941176%,71.764706%,55.686275%);fill-opacity:1;" d="M 10.175781 42.175781 C 9.417969 41.417969 8.40625 41 7.34375 41 L 2 41 L 5.824219 47.886719 C 9.25 48.480469 13.011719 48.84375 16.957031 48.957031 Z M 10.175781 42.175781 "/>
<path style=" stroke:none;fill-rule:nonzero;fill:rgb(32.941176%,71.764706%,55.686275%);fill-opacity:1;" d="M 52 37 C 52 35.125 50.832031 33.34375 48.75 31.761719 L 17.074219 48.957031 C 17.875 48.988281 18.675781 49 19.5 49 C 37.449219 49 52 43.625 52 37 Z M 52 37 "/>
<path style=" stroke:none;fill-rule:nonzero;fill:rgb(89.411765%,96.078431%,99.215686%);fill-opacity:1;" d="M 44.90625 33.855469 L 45 34 L 51 36 L 58.625 32.1875 L 57.800781 31.511719 C 56.636719 30.53125 55.167969 30 53.644531 30 C 52.5625 30 51.5 30.269531 50.550781 30.792969 Z M 44.90625 33.855469 "/>
<path style=" stroke:none;fill-rule:nonzero;fill:rgb(84.705882%,86.27451%,89.411765%);fill-opacity:1;" d="M 22 53 L 31 49 L 28 59 L 23 61 Z M 22 53 "/>
<path style=" stroke:none;fill-rule:nonzero;fill:rgb(84.705882%,86.27451%,89.411765%);fill-opacity:1;" d="M 37 47 L 49 42 L 44 59 L 38 62 Z M 37 47 "/>
<path style=" stroke:none;fill-rule:nonzero;fill:rgb(84.705882%,86.27451%,89.411765%);fill-opacity:1;" d="M 30 42 L 23 40 L 17 41 L 22 46 "/>
<path style=" stroke:none;fill-rule:nonzero;fill:rgb(0%,0%,0%);fill-opacity:1;" d="M 12 60 C 11.644531 60 11.300781 59.8125 11.125 59.488281 L 1.125 41.488281 C 0.957031 41.175781 0.957031 40.800781 1.136719 40.488281 C 1.3125 40.1875 1.644531 40 2 40 L 7.34375 40 C 8.675781 40 9.9375 40.519531 10.875 41.46875 L 17.175781 47.761719 L 50.074219 29.90625 C 52.707031 28.480469 56.144531 28.824219 58.449219 30.738281 L 59.761719 31.832031 C 61.824219 33.550781 63 36.074219 63 38.75 L 63 41 C 63 41.425781 62.738281 41.800781 62.34375 41.9375 L 48.125 47.050781 L 47.449219 45.175781 L 61 40.300781 L 61 38.75 C 61 36.667969 60.082031 34.699219 58.480469 33.363281 L 57.167969 32.269531 C 55.480469 30.863281 52.957031 30.613281 51.03125 31.667969 L 17.480469 49.875 C 17.09375 50.09375 16.605469 50.019531 16.292969 49.707031 L 9.46875 42.875 C 8.894531 42.3125 8.144531 42 7.34375 42 L 3.699219 42 L 12.457031 57.769531 L 21.949219 54.355469 L 22.625 56.238281 L 12.34375 59.9375 C 12.230469 59.980469 12.113281 60 12 60 Z M 12 60 "/>
<path style=" stroke:none;fill-rule:nonzero;fill:rgb(0%,0%,0%);fill-opacity:1;" d="M 29.613281 51.605469 L 36.875 48.988281 L 37.550781 50.875 L 30.292969 53.488281 Z M 29.613281 51.605469 "/>
<path style=" stroke:none;fill-rule:nonzero;fill:rgb(0%,0%,0%);fill-opacity:1;" d="M 23 62 C 22.824219 62 22.644531 61.949219 22.488281 61.863281 C 22.230469 61.699219 22.042969 61.425781 22.011719 61.125 L 21.011719 53.125 C 20.949219 52.6875 21.1875 52.261719 21.59375 52.082031 L 30.59375 48.082031 C 30.949219 47.925781 31.363281 47.988281 31.65625 48.25 C 31.957031 48.511719 32.074219 48.917969 31.957031 49.292969 L 28.957031 59.292969 C 28.875 59.582031 28.65625 59.8125 28.375 59.925781 L 23.375 61.925781 C 23.25 61.980469 23.125 62 23 62 Z M 23.082031 53.613281 L 23.832031 59.59375 L 27.175781 58.25 L 29.417969 50.800781 Z M 23.082031 53.613281 "/>
<path style=" stroke:none;fill-rule:nonzero;fill:rgb(0%,0%,0%);fill-opacity:1;" d="M 38 63 C 37.824219 63 37.65625 62.957031 37.5 62.863281 C 37.207031 62.699219 37.019531 62.394531 37 62.0625 L 36 47.0625 C 35.980469 46.636719 36.21875 46.238281 36.613281 46.074219 L 48.613281 41.074219 C 48.96875 40.925781 49.375 41 49.667969 41.261719 C 49.957031 41.511719 50.074219 41.917969 49.957031 42.28125 L 44.957031 59.28125 C 44.886719 59.550781 44.699219 59.769531 44.449219 59.894531 L 38.449219 62.894531 C 38.300781 62.96875 38.15625 63 38 63 Z M 38.042969 47.644531 L 38.894531 60.4375 L 43.167969 58.300781 L 47.449219 43.730469 Z M 38.042969 47.644531 "/>
<path style=" stroke:none;fill-rule:nonzero;fill:rgb(0%,0%,0%);fill-opacity:1;" d="M 21.292969 46.707031 L 16.292969 41.707031 C 16.03125 41.4375 15.9375 41.050781 16.050781 40.699219 C 16.167969 40.332031 16.46875 40.074219 16.832031 40.011719 L 22.832031 39.011719 C 22.980469 38.988281 23.136719 39 23.269531 39.042969 L 30.269531 41.042969 L 29.730469 42.957031 L 22.9375 41.019531 L 19.082031 41.667969 L 22.707031 45.292969 Z M 21.292969 46.707031 "/>
<path style=" stroke:none;fill-rule:nonzero;fill:rgb(0%,0%,0%);fill-opacity:1;" d="M 51 37 C 50.894531 37 50.792969 36.980469 50.6875 36.949219 L 44.6875 34.949219 L 45.3125 33.050781 L 50.925781 34.917969 L 58.550781 31.105469 L 59.449219 32.894531 L 51.449219 36.894531 C 51.300781 36.96875 51.15625 37 51 37 Z M 51 37 "/>
<path style=" stroke:none;fill-rule:nonzero;fill:rgb(0%,0%,0%);fill-opacity:1;" d="M 29 28 L 9 28 C 7.34375 28 6 26.65625 6 25 L 6 13 C 6 11.34375 7.34375 10 9 10 L 29 10 C 30.65625 10 32 11.34375 32 13 L 32 25 C 32 26.65625 30.65625 28 29 28 Z M 9 12 C 8.449219 12 8 12.449219 8 13 L 8 25 C 8 25.550781 8.449219 26 9 26 L 29 26 C 29.550781 26 30 25.550781 30 25 L 30 13 C 30 12.449219 29.550781 12 29 12 Z M 9 12 "/>
<path style=" stroke:none;fill-rule:nonzero;fill:rgb(0%,0%,0%);fill-opacity:1;" d="M 25 11 L 23 11 L 23 8 L 15 8 L 15 11 L 13 11 L 13 7 C 13 6.449219 13.449219 6 14 6 L 24 6 C 24.550781 6 25 6.449219 25 7 Z M 25 11 "/>
<path style=" stroke:none;fill-rule:nonzero;fill:rgb(0%,0%,0%);fill-opacity:1;" d="M 7 16 L 31 16 L 31 18 L 7 18 Z M 7 16 "/>
<path style=" stroke:none;fill-rule:nonzero;fill:rgb(0%,0%,0%);fill-opacity:1;" d="M 10 14 L 12 14 L 12 20 L 10 20 Z M 10 14 "/>
<path style=" stroke:none;fill-rule:nonzero;fill:rgb(0%,0%,0%);fill-opacity:1;" d="M 26 14 L 28 14 L 28 20 L 26 20 Z M 26 14 "/>
<path style=" stroke:none;fill-rule:nonzero;fill:rgb(0%,0%,0%);fill-opacity:1;" d="M 19 37 C 9.074219 37 1 28.925781 1 19 C 1 9.074219 9.074219 1 19 1 C 28.925781 1 37 9.074219 37 19 C 37 28.925781 28.925781 37 19 37 Z M 19 3 C 10.175781 3 3 10.175781 3 19 C 3 27.824219 10.175781 35 19 35 C 27.824219 35 35 27.824219 35 19 C 35 10.175781 27.824219 3 19 3 Z M 19 3 "/>
<path style=" stroke:none;fill-rule:nonzero;fill:rgb(0%,0%,0%);fill-opacity:1;" d="M 58 20 L 56 20 L 56 18 L 58 18 Z M 54 20 L 52 20 L 52 18 L 54 18 Z M 50 20 L 48 20 L 48 18 L 50 18 Z M 46 20 L 44 20 L 44 18 L 46 18 Z M 42 20 L 40 20 L 40 18 L 42 18 Z M 38 20 L 36 20 L 36 18 L 38 18 Z M 60.3125 19.78125 L 59.65625 17.894531 C 60.074219 17.75 60.4375 17.457031 60.6875 17.082031 L 62.363281 18.167969 C 61.886719 18.917969 61.144531 19.488281 60.3125 19.78125 Z M 60.988281 15.8125 C 60.949219 15.363281 60.761719 14.949219 60.449219 14.625 L 61.894531 13.238281 C 62.511719 13.886719 62.894531 14.730469 62.980469 15.625 Z M 59.28125 14.019531 C 59.1875 14.011719 59.09375 14 59 14 L 57.425781 14 L 57.425781 12 L 59 12 C 59.1875 12 59.386719 12.011719 59.574219 12.042969 Z M 55.425781 14 L 53.425781 14 L 53.425781 12 L 55.425781 12 Z M 51.425781 14 L 49.425781 14 L 49.425781 12 L 51.425781 12 Z M 47.425781 14 L 47 14 C 46.292969 14 45.605469 13.8125 45 13.46875 L 46 11.730469 C 46.300781 11.90625 46.644531 12 47 12 L 47.425781 12 Z M 43.28125 11.488281 C 43.09375 11.011719 43 10.511719 43 10 C 43 9.613281 43.050781 9.238281 43.167969 8.875 L 45.082031 9.4375 C 45.03125 9.613281 45 9.800781 45 10 C 45 10.261719 45.050781 10.511719 45.144531 10.738281 Z M 45.84375 8.375 L 44.675781 6.738281 C 45.355469 6.261719 46.15625 6 47 6 L 47.144531 6 L 47.144531 8 L 47 8 C 46.582031 8 46.175781 8.125 45.84375 8.375 Z M 55.144531 8 L 53.144531 8 L 53.144531 6 L 55.144531 6 Z M 51.144531 8 L 49.144531 8 L 49.144531 6 L 51.144531 6 Z M 51.144531 8 "/>
</g>
</svg>

<svg id="Layer_3" enable-background="new 0 0 64 64" height="512" viewBox="0 0 64 64" width="512" xmlns="http://www.w3.org/2000/svg"><circle cx="19" cy="19" fill="#c7e2fc" r="17"/><path d="m2 19c0 4.218 1.545 8.069 4.088 11.04 2.364 1.247 5.053 1.96 7.912 1.96 9.389 0 17-7.611 17-17 0-4.218-1.545-8.069-4.088-11.04-2.364-1.247-5.053-1.96-7.912-1.96-9.389 0-17 7.611-17 17z" fill="#ebf7fe"/><path d="m29 11h-20c-1.105 0-2 .895-2 2v12c0 1.105.895 2 2 2h20c1.105 0 2-.895 2-2v-12c0-1.105-.895-2-2-2z" fill="#f5b953"/><path d="m29 11h-20c-1.105 0-2 .895-2 2v4h24v-4c0-1.105-.895-2-2-2z" fill="#f9d18b"/><path d="m47.789 46.116 14.211-5.116v-2.253c0-2.374-1.055-4.626-2.879-6.146l-1.315-1.096c-1.167-.972-2.638-1.505-4.157-1.505-1.082 0-2.147.27-3.098.787l-33.551 18.213-6.828-6.828c-.751-.751-1.768-1.172-2.829-1.172h-5.343l10 18 10.287-3.703" fill="#4ca77e"/><path d="m10.172 42.172c-.751-.751-1.768-1.172-2.829-1.172h-5.343l3.826 6.886c3.429.588 7.182.961 11.134 1.074z" fill="#54b78e"/><path d="m52 37c0-1.877-1.169-3.653-3.25-5.235l-31.682 17.198c.804.022 1.613.037 2.432.037 17.949 0 32.5-5.373 32.5-12z" fill="#54b78e"/><path d="m44.902 33.853.098.147 6 2 7.625-3.812-.819-.682c-1.167-.973-2.638-1.506-4.157-1.506-1.082 0-2.147.27-3.098.787z" fill="#e4f5fd"/><g fill="#d8dce4"><path d="m22 53 9-4-3 10-5 2z"/><path d="m37 47 12-5-5 17-6 3z"/><path d="m30 42-7-2-6 1 5 5"/></g><path d="m12 60c-.354 0-.693-.189-.874-.514l-10-18c-.172-.31-.168-.688.012-.993.179-.305.508-.493.862-.493h5.343c1.336 0 2.592.52 3.536 1.464l6.3 6.301 32.895-17.857c2.634-1.427 6.072-1.088 8.372.829l1.316 1.097c2.057 1.714 3.238 4.234 3.238 6.913v2.253c0 .422-.265.798-.661.941l-14.211 5.116-.678-1.882 13.55-4.878v-1.55c0-2.083-.918-4.044-2.52-5.378l-1.315-1.096c-1.688-1.405-4.208-1.655-6.138-.607l-33.55 18.213c-.388.212-.871.142-1.185-.172l-6.828-6.829c-.566-.566-1.319-.878-2.121-.878h-3.644l8.762 15.771 9.487-3.415.678 1.882-10.287 3.703c-.111.04-.226.059-.339.059z"/><path d="m29.71 50.236h7.714v2h-7.714z" transform="matrix(.941 -.339 .339 .941 -15.375 14.405)"/><path d="m23 62c-.177 0-.353-.047-.508-.139-.268-.158-.446-.43-.484-.737l-1-8c-.055-.438.184-.859.586-1.038l9-4c.356-.159.773-.096 1.067.163.293.258.409.664.297 1.038l-3 10c-.088.292-.304.528-.587.642l-5 2c-.119.048-.245.071-.371.071zm.084-8.388.748 5.978 3.349-1.34 2.236-7.453z"/><path d="m38 63c-.172 0-.344-.044-.497-.132-.29-.167-.479-.467-.501-.801l-1-15c-.028-.427.219-.825.613-.989l12-5c.355-.149.765-.079 1.053.178.287.257.4.657.291 1.027l-5 17c-.078.266-.264.488-.512.612l-6 3c-.14.07-.294.105-.447.105zm.045-15.352.853 12.785 4.266-2.133 4.286-14.571z"/><path d="m21.293 46.707-5-5c-.265-.265-.359-.655-.245-1.012s.418-.62.788-.681l6-1c.145-.025.298-.016.438.025l7 2-.549 1.923-6.783-1.938-3.861.644 3.626 3.626z"/><path d="m51 37c-.106 0-.213-.017-.316-.051l-6-2 .633-1.897 5.606 1.869 7.63-3.815.895 1.789-8 4c-.141.069-.294.105-.448.105z"/><path d="m29 28h-20c-1.654 0-3-1.346-3-3v-12c0-1.654 1.346-3 3-3h20c1.654 0 3 1.346 3 3v12c0 1.654-1.346 3-3 3zm-20-16c-.552 0-1 .449-1 1v12c0 .551.448 1 1 1h20c.552 0 1-.449 1-1v-12c0-.551-.448-1-1-1z"/><path d="m25 11h-2v-3h-8v3h-2v-4c0-.552.447-1 1-1h10c.553 0 1 .448 1 1z"/><path d="m7 16h24v2h-24z"/><path d="m10 14h2v6h-2z"/><path d="m26 14h2v6h-2z"/><path d="m19 37c-9.925 0-18-8.075-18-18s8.075-18 18-18 18 8.075 18 18-8.075 18-18 18zm0-34c-8.822 0-16 7.178-16 16s7.178 16 16 16 16-7.178 16-16-7.178-16-16-16z"/><path d="m58 20h-2v-2h2zm-4 0h-2v-2h2zm-4 0h-2v-2h2zm-4 0h-2v-2h2zm-4 0h-2v-2h2zm-4 0h-2v-2h2zm22.309-.219-.654-1.89c.422-.146.787-.434 1.029-.81l1.682 1.082c-.484.752-1.215 1.326-2.057 1.618zm.682-3.972c-.042-.443-.235-.865-.544-1.189l1.447-1.38c.617.647 1.003 1.493 1.087 2.38zm-1.706-1.789c-.094-.013-.188-.02-.285-.02h-1.571v-2h1.571c.192 0 .383.014.568.041zm-3.856-.02h-2v-2h2zm-4 0h-2v-2h2zm-4 0h-.429c-.704 0-1.396-.186-2.002-.536l1.004-1.73c.301.174.645.266.998.266h.429zm-4.144-2.514c-.189-.474-.285-.974-.285-1.486 0-.384.055-.764.162-1.128l1.918.566c-.053.18-.08.369-.08.562 0 .257.048.507.143.744zm2.556-3.116-1.162-1.628c.679-.486 1.481-.742 2.319-.742h.003.143v2h-.144c-.001 0-.001 0-.002 0-.419 0-.818.128-1.157.37zm9.303-.37h-2v-2h2zm-4 0h-2v-2h2z"/></svg>
